!!!OTL: Cantemus domino
**kern
*staff1
=--
*clefG2
*k[]
1cc
2cc
2cc
2cc
2cc
1b
=-
1b
2cc
1a
2g
1cc
=-
1cc
2b
2cc
2dd
2cc
1b
=-
1cc
1cc
2cc
2cc
1cc
!!linebreak:original
=-
2.a
4a
2g
2a
1g
1a
=-
2b
2a
2g
2a
1g
1a
=-
!LO:TX:Y=-35:t=P
2g
2a
1g
1a
1a
=-
!LO:TX:Y=-38:t=P
1g
1g
1f
1f
=-
1g
1a
=-
!!linebreak:original
1e
2e
2e
2f
2f
1e
=-
1b
1cc
1b
1a
=-
1g
1a
1b
1a
=-
1g
1g
0a
=-=
*-
!!title: @{OTL}, @{GTL}, ed. @{ENC}
!!!pag:
!!!GTL: Hymnbook C
!!!EFL: 
!!!YEM: Creative Commons CC/BY/NC/SA 4.0
!!!ENC: Marcin Konik
!!!END: 2015-0m-dd
!!!EED: Marcin Konik
!!!EEV: 
!!!ONB: Encoded in vim by Marcin Konik
!!!CharacterEncoding: utf-8
!!!RDF**kern: l=long note in original notation
!!!RDF**kern: i=editorial accidental
!!muse2ps: z14jc180F
!!!COM: Anonim
!!!CDT: [?]
!!!TXO: Polish
!!!ODT: 
!!!GTL: Hymnbook C
!!!ARL: Opactwo św. Wojciecha, Staniątki 
!!!voices:	1
